_inc/systems/logos/mugen.svg

<?xml version="1.0" encoding="utf-8"?>
<svg viewBox="0 0 1152.4 161.9" xmlns="http://www.w3.org/2000/svg">
  <path id="rect1682" style="fill-opacity: 1; stroke: none; stroke-width: 1.077; stroke-linecap: square; stroke-miterlimit: 4; stroke-dasharray: none; stroke-opacity: 0.998405; stop-color: rgb(0, 0, 0); fill: rgb(255, 255, 255);" d="M 431.576 0.002 C 425.221 0.029 418.833 0.42 418.104 1.149 C 417.172 2.081 417.063 8.673 417.063 63.765 C 417.063 102.946 416.823 125.969 416.404 127.072 C 415.075 130.567 413.625 130.729 383.765 130.729 C 353.097 130.729 352.895 130.699 350.592 126.088 C 349.513 123.93 349.432 119.524 349.432 62.98 C 349.432 8.603 349.321 2.081 348.389 1.149 C 347.475 0.235 343.936 0.108 319.561 0.108 L 291.775 0.108 L 290.722 1.716 C 289.773 3.163 289.694 9.344 289.93 63.545 C 290.182 121.361 290.247 124.006 291.552 129.735 C 295.72 148.032 304.631 157.768 320.065 160.889 C 323.665 161.616 333.728 161.77 370.317 161.657 C 411.622 161.529 416.454 161.403 420.046 160.358 C 433.223 156.524 439.796 149.381 443.71 134.642 C 445.183 129.094 445.19 128.814 445.407 65.517 C 445.569 17.984 445.43 1.728 444.855 1.035 C 444.254 0.311 437.931 -0.025 431.576 0.002 Z M 1138.038 0.044 C 1131.573 0.068 1125.132 0.393 1124.629 1 C 1124.099 1.639 1123.84 18.583 1123.719 60.676 L 1123.55 119.461 L 1097.071 60.704 C 1082.508 28.388 1070.179 1.534 1069.673 1.028 C 1068.911 0.266 1062.564 0.108 1032.701 0.108 L 996.65 0.108 L 995.617 1.581 C 994.697 2.895 994.585 11.54 994.585 81.148 C 994.585 158.357 994.6 159.256 995.911 160.567 C 997.138 161.794 998.122 161.894 1009.046 161.894 C 1018.197 161.894 1021.143 161.681 1022.141 160.952 C 1023.394 160.036 1023.437 158.447 1023.76 100.85 L 1024.091 41.689 L 1050.913 101.176 C 1066.541 135.836 1078.214 160.92 1078.883 161.278 C 1079.548 161.634 1094.845 161.894 1115.171 161.894 C 1146.231 161.894 1150.43 161.772 1151.351 160.851 C 1152.286 159.916 1152.393 151.739 1152.393 80.754 C 1152.393 20.151 1152.207 1.513 1151.597 0.903 C 1150.994 0.3 1144.504 0.021 1138.038 0.044 Z M 682.21 0.106 L 624.668 0.108 C 569.944 0.108 566.88 0.17 562.11 1.39 C 555.282 3.136 550.769 5.556 546.643 9.682 C 540.929 15.396 537.134 24.541 535.764 35.895 C 534.876 43.263 534.869 118.748 535.756 125.824 C 537.068 136.29 540.401 145.199 545.13 150.885 C 549.204 155.784 557.053 159.91 564.767 161.209 L 564.767 161.205 C 569.649 162.029 684.771 162.028 686.307 161.205 C 687.557 160.537 687.59 159.292 687.59 112.123 L 687.59 63.727 L 685.889 63.08 C 684.85 62.685 668.251 62.433 643.269 62.433 C 607.308 62.433 602.172 62.559 600.877 63.466 C 599.434 64.476 599.403 64.79 599.403 78.252 C 599.403 88.065 599.631 92.233 600.199 92.801 C 600.767 93.369 604.943 93.597 614.786 93.597 L 628.578 93.597 L 628.578 110.137 C 628.578 126.66 628.574 126.678 626.979 128.536 L 625.38 130.397 L 612.434 130.601 C 598.062 130.829 595.908 130.374 594.937 126.904 C 594.275 124.538 594.275 37.459 594.937 35.094 C 596.02 31.223 595.461 31.27 640.48 31.27 C 680.738 31.27 681.651 31.241 682.948 29.944 C 684.183 28.709 684.274 27.734 684.274 15.836 C 684.274 5.34 684.09 2.79 683.242 1.58 L 682.21 0.106 Z M 2.064 0.108 L 1.032 1.581 C 0.112 2.895 0 11.54 0 81.148 C 0 158.357 0.014 159.256 1.325 160.567 C 2.552 161.794 3.535 161.894 14.46 161.894 C 23.61 161.894 26.558 161.681 27.555 160.952 C 28.806 160.038 28.851 158.505 29.174 106.607 L 29.505 53.203 L 45.997 106.719 C 55.516 137.609 62.928 160.586 63.529 161.065 C 64.307 161.684 69.362 161.894 83.545 161.894 C 97.699 161.894 102.798 161.683 103.615 161.065 C 104.288 160.556 111.307 139.459 121.81 106.381 L 138.91 52.527 L 139.241 106.571 C 139.53 153.645 139.702 160.697 140.568 161.244 C 141.152 161.614 152.839 161.877 168.913 161.883 C 195.387 161.893 196.307 161.851 197.591 160.567 C 198.902 159.256 198.917 158.357 198.917 81.148 C 198.917 11.54 198.805 2.895 197.885 1.581 L 196.852 0.108 L 162.095 0.108 L 127.337 0.108 L 126.377 1.599 C 125.849 2.42 119.684 20.845 112.677 42.543 C 105.669 64.242 99.739 82.218 99.499 82.491 C 99.259 82.764 93.578 64.926 86.874 42.85 C 80.171 20.775 74.276 2.128 73.773 1.411 C 72.885 0.143 71.902 0.108 37.462 0.108 L 2.064 0.108 Z M 780.493 0.108 L 779.46 1.581 C 778.54 2.895 778.428 11.54 778.428 81.148 C 778.428 158.357 778.443 159.256 779.754 160.567 C 781.061 161.874 781.965 161.894 842.457 161.894 C 883.498 161.894 904.258 161.666 905.116 161.207 C 906.322 160.561 906.399 159.682 906.399 146.421 C 906.399 136.338 906.172 132.094 905.603 131.525 C 905.005 130.928 896.511 130.729 871.455 130.729 L 838.104 130.729 L 838.104 112.164 L 838.104 93.599 L 868.952 93.599 L 899.8 93.599 L 900.485 91.798 C 901.513 89.093 901.008 64.732 899.901 63.627 C 899.225 62.952 892.461 62.726 868.571 62.581 L 838.104 62.396 L 838.104 46.834 L 838.104 31.271 L 870.968 31.271 C 892.355 31.271 904.281 31.032 905.116 30.585 C 906.322 29.939 906.399 29.06 906.399 15.798 C 906.399 5.716 906.172 1.472 905.603 0.903 C 904.995 0.295 890.111 0.108 842.65 0.108 L 780.493 0.108 Z M 162.557 5.411 L 193.612 5.411 L 193.612 5.42 L 162.804 5.42 L 162.557 5.411 Z M 244.336 115.479 C 220.894 115.479 217.448 115.609 216.535 116.521 C 215.631 117.425 215.493 120.368 215.493 138.686 C 215.493 157.005 215.631 159.948 216.535 160.851 C 217.448 161.764 220.894 161.894 244.336 161.894 C 267.779 161.894 271.224 161.764 272.137 160.851 C 273.04 159.948 273.179 157.005 273.179 138.686 C 273.179 120.368 273.04 117.425 272.137 116.521 C 271.224 115.609 267.779 115.479 244.336 115.479 Z M 491.656 115.479 C 468.214 115.479 464.768 115.609 463.855 116.521 C 462.951 117.425 462.813 120.368 462.813 138.686 C 462.813 157.005 462.951 159.948 463.855 160.851 C 464.768 161.764 468.214 161.894 491.656 161.894 C 515.099 161.894 518.545 161.764 519.458 160.851 C 520.361 159.948 520.499 157.005 520.499 138.686 C 520.499 120.368 520.361 117.425 519.458 116.521 C 518.545 115.609 515.099 115.479 491.656 115.479 Z M 733.009 115.479 C 709.566 115.479 706.121 115.609 705.208 116.521 C 704.305 117.425 704.166 120.368 704.166 138.686 C 704.166 157.005 704.305 159.948 705.208 160.851 C 706.121 161.764 709.566 161.894 733.009 161.894 C 756.451 161.894 759.897 161.764 760.81 160.851 C 761.714 159.948 761.852 157.005 761.852 138.686 C 761.852 120.368 761.714 117.425 760.81 116.521 C 759.897 115.609 756.451 115.479 733.009 115.479 Z M 949.165 115.479 C 925.723 115.479 922.278 115.609 921.365 116.521 C 920.461 117.425 920.323 120.368 920.323 138.686 C 920.323 157.005 920.461 159.948 921.365 160.851 C 922.278 161.764 925.723 161.894 949.165 161.894 C 972.608 161.894 976.054 161.764 976.967 160.851 C 977.87 159.948 978.009 157.005 978.009 138.686 C 978.009 120.368 977.87 117.425 976.967 116.521 C 976.054 115.609 972.608 115.479 949.165 115.479 Z"/>
</svg>

<svg xmlns="http://www.w3.org/2000/svg" viewBox="0 0 1152.4 161.9"><path d="M431.58 0c-6.36.03-12.75.42-13.48 1.15-.93.93-1.04 7.52-1.04 62.62 0 39.18-.24 62.2-.66 63.3-1.32 3.5-2.77 3.66-32.63 3.66-30.67 0-30.87-.03-33.18-4.64-1.08-2.16-1.16-6.57-1.16-63.11 0-54.38-.1-60.9-1.04-61.83C347.48.24 343.94.1 319.56.1h-27.79l-1.05 1.6c-.95 1.45-1.03 7.63-.79 61.84.25 57.81.32 60.46 1.62 66.19 4.17 18.3 13.08 28.03 28.51 31.15 3.6.73 13.67.88 50.26.77 41.3-.13 46.13-.26 49.73-1.3 13.17-3.84 19.75-10.98 23.66-25.72 1.47-5.55 1.48-5.83 1.7-69.12.16-47.54.02-63.8-.56-64.48-.6-.73-6.92-1.06-13.27-1.04m706.46.04c-6.47.03-12.9.35-13.41.96-.53.64-.79 17.58-.91 59.68l-.17 58.78-26.48-58.76c-14.56-32.31-26.9-59.17-27.4-59.67-.76-.76-7.1-.92-36.97-.92h-36.05l-1.03 1.47c-.92 1.32-1.03 9.96-1.03 79.57 0 77.2.01 78.1 1.32 79.42 1.23 1.22 2.21 1.32 13.14 1.32 9.15 0 12.1-.2 13.1-.94 1.24-.91 1.29-2.5 1.61-60.1l.33-59.16 26.82 59.49c15.63 34.66 27.3 59.74 27.97 60.1s15.96.61 36.3.61c31.05 0 35.25-.12 36.17-1.04.94-.93 1.04-9.11 1.04-80.1 0-60.6-.18-79.24-.8-79.85-.6-.6-7.09-.88-13.55-.86M682.2.11h-57.54c-54.73 0-57.79.06-62.56 1.28-6.83 1.75-11.34 4.17-15.47 8.3-5.71 5.7-9.5 14.85-10.88 26.2-.88 7.37-.9 82.86 0 89.93 1.3 10.47 4.64 19.38 9.37 25.07 4.07 4.9 11.92 9.02 19.64 10.32 4.88.82 120 .82 121.54 0 1.25-.67 1.28-1.92 1.28-49.09v-48.4l-1.7-.64c-1.04-.4-17.64-.65-42.62-.65-35.96 0-41.1.13-42.4 1.04-1.44 1-1.47 1.32-1.47 14.78 0 9.81.23 13.98.8 14.55s4.74.8 14.59.8h13.79v16.54c0 16.52 0 16.54-1.6 18.4l-1.6 1.86-12.95.2c-14.37.23-16.52-.23-17.5-3.7-.65-2.36-.65-89.44 0-91.8 1.09-3.88.53-3.83 45.55-3.83 40.26 0 41.17-.03 42.47-1.33 1.23-1.23 1.32-2.2 1.32-14.1 0-10.5-.18-13.05-1.03-14.26zM2.06.1 1.03 1.58C.11 2.9 0 11.54 0 81.15c0 77.2.01 78.1 1.33 79.42 1.22 1.22 2.2 1.32 13.13 1.32 9.15 0 12.1-.2 13.1-.94 1.25-.91 1.3-2.44 1.61-54.34l.33-53.4L46 106.7c9.52 30.9 16.93 53.88 17.53 54.36.78.61 5.83.82 20.02.82 14.15 0 19.25-.2 20.06-.82.68-.51 7.7-21.61 18.2-54.69l17.1-53.85.33 54.04c.29 47.08.46 54.13 1.33 54.67.58.37 12.27.64 28.34.64 26.48.01 27.4-.03 28.68-1.31 1.31-1.31 1.33-2.21 1.33-79.42 0-69.61-.11-78.26-1.03-79.57L196.85.11h-69.51l-.96 1.49c-.53.82-6.7 19.24-13.7 40.94-7.01 21.7-12.94 39.68-13.18 39.95s-5.92-17.56-12.63-39.64c-6.7-22.08-12.6-40.72-13.1-41.44C72.9.14 71.9.11 37.47.11zM780.5.1l-1.03 1.47c-.92 1.32-1.03 9.96-1.03 79.57 0 77.2.01 78.1 1.32 79.42 1.31 1.3 2.22 1.32 62.7 1.32 41.05 0 61.8-.22 62.67-.68 1.2-.65 1.28-1.53 1.28-14.79 0-10.08-.23-14.33-.8-14.9-.6-.6-9.09-.8-34.14-.8H838.1V93.6h61.7l.69-1.8c1.02-2.7.52-27.07-.59-28.17-.67-.68-7.44-.9-31.33-1.05l-30.47-.18V31.27h32.87c21.38 0 33.31-.24 34.15-.68 1.2-.65 1.28-1.53 1.28-14.8 0-10.07-.23-14.32-.8-14.89-.6-.6-15.49-.8-62.95-.8zM162.56 5.4h31.05v.01zm81.78 110.07c-23.45 0-26.9.13-27.8 1.04-.9.9-1.05 3.85-1.05 22.17 0 18.31.14 21.26 1.04 22.16.92.91 4.36 1.04 27.8 1.04s26.9-.13 27.8-1.04c.91-.9 1.05-3.84 1.05-22.16s-.14-21.26-1.04-22.17c-.92-.91-4.36-1.04-27.8-1.04m247.32 0c-23.45 0-26.9.13-27.8 1.04-.9.9-1.05 3.85-1.05 22.17 0 18.31.14 21.26 1.05 22.16.9.91 4.35 1.04 27.8 1.04 23.44 0 26.88-.13 27.8-1.04.9-.9 1.04-3.84 1.04-22.16s-.14-21.26-1.04-22.17c-.92-.91-4.36-1.04-27.8-1.04m241.35 0c-23.44 0-26.89.13-27.8 1.04-.9.9-1.04 3.85-1.04 22.17 0 18.31.13 21.26 1.04 22.16.91.91 4.36 1.04 27.8 1.04s26.89-.13 27.8-1.04c.9-.9 1.04-3.84 1.04-22.16s-.14-21.26-1.04-22.17c-.91-.91-4.36-1.04-27.8-1.04m216.15 0c-23.44 0-26.88.13-27.8 1.04-.9.9-1.04 3.85-1.04 22.17 0 18.31.14 21.26 1.04 22.16.92.91 4.36 1.04 27.8 1.04s26.9-.13 27.8-1.04c.91-.9 1.05-3.84 1.05-22.16s-.14-21.26-1.04-22.17c-.92-.91-4.36-1.04-27.8-1.04" style="fill-opacity:1;stroke:none;stroke-width:1.077;stroke-linecap:square;stroke-miterlimit:4;stroke-dasharray:none;stroke-opacity:.998405;stop-color:#000;fill:#fff"/></svg>
